X: 1629
T: Rüzgâr Uyumuş Ay Dalıyor
C: Refik Fersan
O: Turkey
F: http://compmusic.upf.edu/node/140
N: acemkurdi--sarki--senginsemai--ruzgar_uyumus--refik_fersan
N: makam= acemkurdi
N: form= sarki
N: usul= senginsemai = 6/4
M: 6/4
L: 1/16
K: C _B   
Q: 1/4=76
%%MIDI tuningsystem comma53
f3e e3d d3c c3B d6c2  | e3d d3c c3B B3A c6z2  | \
w:  ARANAĞME  |   | 
B8 B3A G4 ABc4BA  | 
w:   | 
A8 z2c2 d2e2 f6z2  | f3e e3d d3c c3B d6c2  | \
w:   |  ARANAĞME  | 
e3d d3c c3B B3A c6z2  | 
w:   | 
B8 B3A G4 ABc4BA  | A8 z2c2 d2e2 f6z2  | \
w:   |   | 
c4 f4 e4 a4 g2f2 e2d2  | 
w:  Rüz gâr  u yu muş   | 
c8 d4 e4 f6z2  | b6a2 a2g2 f2a2 g2f2 e2{a}gf  | \
w:  ay da lı yor   |  her  *  ta *  raf  *  ıs  | 
f8 z2c2 d2e2 f6z2  | 
w:  sız  SAZ  | 
f4 {g}f3e e3d d3c e8  | c8 B4 A4 d8  | \
w:  Öl *  gün  *  ba *  kı *  yor   |  var sa  he nüz   | 
B8 B3A G4 ABc4BA  | 
w:  bir  i *  ki  yıl  | 
A8 z2c2 d2e2 f8  | f4 {g}f3e e3d d3c e8  | \
w:  dız  SAZ  |  Öl *  gün  *  ba *  kı *  yor   | 
c8 B4 A4 d8  | B8 B3A G4 ABc4BA  | 
w:  var sa  he nüz   |  bir  i *  ki  yıl  | 
A8 zfed cBAG F6z2  | .F4 .A4 c4 d2e2 f8  | \
w:  dız  SAZ  |  Gel  çıt  bi le  *  yok   | 
b6a2 a3g g2^f2 g2{c'}ba g=fed  | 
w:  kork *  ma  *  be *  nim   | 
c8 d4 e4 f2a4gf  | f8 zfed cBAG F6z2  | \
w:  bah çe de  yal  |  nız   SAZ  | 
.F4 .A4 c4 d2e2 f8  | 
w:  Gel  çıt  bi le  *  yok   | 
b6a2 a3g g2^f2 g2{c'}ba g=fed  | c8 d4 e4 f2a4gf  | \
w:  kork *  ma  *  be *  nim   |  bah çe de  yal  | 
f8 z2c2 d2e2 f6z2  | 
w:  nız   SAZ  | 
f4 {g}f3e e3d d3c e8  | c8 B4 A4 d8  | \
w:  Öl *  gün  *  ba *  kı *  yor   |  var sa  he nüz   | 
B8 B3A G4 ABc4BA  | 
w:  bir  i *  ki  yıl  | 
A8 z2c2 d2e2 f8  | f4 {g}f3e e3d d3c e8  | \
w:  dız  SAZ  |  Öl *  gün  *  ba *  kı *  yor   | 
c8 B4 A4 d8  | B8 B3A G4 ABc4BA  | 
w:  var sa  he nüz   |  bir  i *  ki  yıl  | 
A8 |
w:  dız   | 


